X: 3552
T: Big Mon
R: reel
M: 4/4
K: Amajor
E2 F2 G2|:"A"AGAB cABA|"G"=GFGA BAGF|"A"EFAB cdef|=gfed cBAB|
AGAB cABA|"G"=GFGA BAGF|"A"EFAB cAef|"E"edcB "A"A2EF:|
"A"AecA e2ef|=cBA=G AGED|E=GAE =c^cAG|AE=GA "E"B4|
"A"AecA e2ef|=cBA=G AGED|E=GAE =c^cAG|"E"ED=C^C "A"A,4||
"A"AecA e2ef|=cBA=G AGED|E=GAE =c^cAG|AE=GA "E"B4|
"A"E2 e=g ^degd|=d=c^d=d cA=Gc|A=G=cA GEAG|"E"ED=C^C "A"A,4||

